X:109
T:Emigrant's Farewell, The
R:song
D:L\'a Lugh (Eithne N\'i Uallach\'ain)
Z:id:hn-song-109
M:3/4
L:1/8
Q:1/4=90
K:Dmix
(dc) | A3 G F2 | D D3 ((3DEF) | G4 ((3AGF) | G4
FG | A2 B2 (cB) | A2 G2 GA | F D3-D2 | C4
(dc) | A3 G F2 | D4 ((3DEF) | G2 A2 (GF) | G4
(FG) | (A2 B2) (cB) | A4 GA | F2 D3 C | D6 ||
G4 A2 | F2 D4 | (F3 G) (AB) | c4
dc | A3 G F2 | G4 A2 | GF D3 B, | C4
(dc) | A3 (G F2) | D4 ((3DE)F | G2 (A2 GF) | G4
FG | (A2 B2) (cB) | A4 GA | F2 (D3 C) | D6 ||
W:Our ship she's ready to sail away,
W:and it's come my sweet comrades, o'er the stormy seas.
W:Her snow-white wings are all unfurled,
W:and soon shall swim in a watery world.
W:
W:Chorus:
W:Don't forget love, do not grieve,
W:for my heart is true and cannot deceive.
W:My hand and heart, I will give to thee
W:so farewell my love and remember me.
W:
W:Farewell sweet Dublin's hills and braes
W:to Killiney mountain's silvery streams,
W:Where's many the fine long summer's day
W:we loitered hours of joy away.
W:
W:Chorus
W:
W:It's now I must bid a long adieu
W:to Wicklow and its beauties too
W:Avoca's vales where lovers meet
W:There to discourse in accents sweet
W:
W:Chorus
W:
W:Farewell sweet Delgany, likewise the glen
W:the Dargle waterfall and then
W:the lovely scene surrounding Bray
W:shall be my thoughts when far away.
W:
W:Chorus

